img/home/wordpress_logo.svg

<svg width="540" height="123" viewBox="0 0 540 123" xmlns="http://www.w3.org/2000/svg"><title>Layer_2</title><g fill="#FFF" fill-rule="evenodd"><path d="M313.19 48.227h-21.257v2.255c6.649 0 7.718 1.425 7.718 9.857V75.54c0 8.431-1.068 9.975-7.718 9.975-5.105-.712-8.55-3.444-13.3-8.669l-5.462-5.937c7.362-1.308 11.28-5.938 11.28-11.164 0-6.53-5.58-11.518-16.031-11.518h-20.9v2.255c6.649 0 7.718 1.425 7.718 9.857V75.54c0 8.431-1.069 9.975-7.718 9.975v2.256h23.631v-2.256c-6.649 0-7.718-1.544-7.718-9.975v-4.274h2.018l13.182 16.505h34.557c16.981 0 24.344-9.024 24.344-19.832 0-10.806-7.362-19.712-24.344-19.712zm-49.756 19.355V51.79h4.868c5.343 0 7.719 3.681 7.719 7.956 0 4.157-2.376 7.837-7.719 7.837h-4.868v-.001zm50.113 16.508h-.832c-4.274 0-4.868-1.068-4.868-6.531V51.79h5.7c12.35 0 14.605 9.024 14.605 16.031 0 7.243-2.256 16.269-14.605 16.269zM181.378 71.978l8.194-24.227c2.376-7.006 1.307-9.024-6.293-9.024v-2.376h22.325v2.376c-7.481 0-9.262 1.781-12.231 10.45L179.834 89.79h-1.543l-12.114-37.17-12.349 37.17h-1.544l-13.181-40.613c-2.85-8.669-4.75-10.45-11.638-10.45v-2.376h26.363v2.376c-7.007 0-8.908 1.662-6.413 9.024l7.956 24.227 11.994-35.627h2.257l11.756 35.627zm40.374 17.336c-13.062 0-23.75-9.618-23.75-21.376 0-11.637 10.689-21.257 23.75-21.257 13.063 0 23.75 9.62 23.75 21.257 0 11.758-10.687 21.376-23.75 21.376zm0-38.949c-10.924 0-14.725 9.855-14.725 17.574 0 7.839 3.801 17.576 14.725 17.576 11.045 0 14.845-9.737 14.845-17.576 0-7.719-3.8-17.574-14.845-17.574zm145.112 35.031v2.375H339.67v-2.375c7.957 0 9.382-2.018 9.382-13.895V52.502c0-11.877-1.425-13.776-9.382-13.776V36.35h24.581c12.231 0 19.002 6.294 19.002 14.727 0 8.194-6.771 14.606-19.002 14.606h-6.769V71.5c0 11.878 1.425 13.896 9.382 13.896zm-2.613-44.771h-6.769v20.664h6.769c6.651 0 9.738-4.631 9.738-10.212 0-5.7-3.087-10.452-9.738-10.452zm100.582 35.984l-.594 2.137c-1.068 3.919-2.376 5.344-10.807 5.344h-1.663c-6.174 0-7.243-1.425-7.243-9.856v-5.462c9.263 0 9.976.83 9.976 7.006h2.256V58.083h-2.256c0 6.175-.713 7.006-9.976 7.006V51.79h6.53c8.433 0 9.738 1.425 10.807 5.344l.595 2.255h1.899l-.83-11.162h-34.914v2.255c6.649 0 7.719 1.425 7.719 9.857V75.54c0 7.713-.908 9.656-6.151 9.933-4.983-.761-8.404-3.479-13.085-8.627l-5.463-5.937c7.363-1.308 11.282-5.938 11.282-11.164 0-6.53-5.581-11.518-16.031-11.518h-20.9v2.255c6.649 0 7.718 1.425 7.718 9.857V75.54c0 8.431-1.068 9.975-7.718 9.975v2.256h23.632v-2.256c-6.649 0-7.719-1.544-7.719-9.975v-4.274h2.019l13.181 16.505h48.806l.713-11.161h-1.783v-.001zm-62.937-9.027V51.79h4.868c5.344 0 7.72 3.681 7.72 7.956 0 4.157-2.376 7.837-7.72 7.837h-4.868v-.001zm87.043 21.732c-4.75 0-8.907-2.493-10.688-4.038-.594.595-1.662 2.376-1.899 4.038h-2.257V72.928h2.375c.951 7.837 6.412 12.468 13.419 12.468 3.8 0 6.888-2.137 6.888-5.699 0-3.087-2.731-5.463-7.6-7.719l-6.769-3.206c-4.751-2.258-8.313-6.177-8.313-11.401 0-5.7 5.344-10.568 12.707-10.568 3.919 0 7.243 1.425 9.263 3.087.593-.475 1.187-1.782 1.544-3.208h2.256v14.014h-2.494c-.832-5.582-3.919-10.213-10.212-10.213-3.325 0-6.414 1.9-6.414 4.87 0 3.087 2.494 4.749 8.195 7.362l6.53 3.206c5.701 2.731 7.956 7.127 7.956 10.689 0 7.48-6.531 12.704-14.487 12.704zm36.575 0c-4.751 0-8.908-2.493-10.688-4.038-.594.595-1.662 2.376-1.899 4.038h-2.257V72.928h2.375c.95 7.837 6.412 12.468 13.419 12.468 3.8 0 6.888-2.137 6.888-5.699 0-3.087-2.731-5.463-7.601-7.719l-6.769-3.206c-4.75-2.258-8.313-6.177-8.313-11.401 0-5.7 5.344-10.568 12.707-10.568 3.919 0 7.243 1.425 9.263 3.087.593-.475 1.187-1.782 1.542-3.208h2.257v14.014h-2.493c-.832-5.582-3.919-10.213-10.212-10.213-3.325 0-6.414 1.9-6.414 4.87 0 3.087 2.494 4.749 8.195 7.362l6.53 3.206C537.745 68.652 540 73.048 540 76.61c0 7.48-6.531 12.704-14.486 12.704z" opacity=".85"/><g opacity=".5"><path d="M8.708 61.26c0 20.802 12.089 38.779 29.619 47.298L13.258 39.872a52.354 52.354 0 0 0-4.55 21.388zm88.032-2.652c0-6.495-2.333-10.993-4.334-14.494-2.664-4.329-5.161-7.995-5.161-12.324 0-4.831 3.664-9.328 8.825-9.328.233 0 .454.029.681.042-9.35-8.566-21.807-13.796-35.489-13.796-18.36 0-34.513 9.42-43.91 23.688 1.233.037 2.395.063 3.382.063 5.497 0 14.006-.667 14.006-.667 2.833-.167 3.167 3.994.337 4.329 0 0-2.847.335-6.015.501L48.2 93.547l11.501-34.493-8.188-22.434c-2.83-.166-5.511-.501-5.511-.501-2.832-.166-2.5-4.496.332-4.329 0 0 8.679.667 13.843.667 5.496 0 14.006-.667 14.006-.667 2.835-.167 3.168 3.994.337 4.329 0 0-2.853.335-6.015.501l18.992 56.494 5.242-17.517c2.272-7.269 4.001-12.49 4.001-16.989z"/><path d="M62.184 65.857l-15.768 45.819a52.552 52.552 0 0 0 14.846 2.141c6.12 0 11.989-1.058 17.452-2.979a4.615 4.615 0 0 1-.374-.724L62.184 65.857zm45.192-29.811c.226 1.674.354 3.471.354 5.404 0 5.333-.996 11.328-3.996 18.824l-16.053 46.413c15.624-9.111 26.133-26.038 26.133-45.426.001-9.137-2.333-17.729-6.438-25.215z"/><path d="M61.262 0C27.483 0 0 27.481 0 61.26c0 33.783 27.483 61.263 61.262 61.263 33.778 0 61.265-27.48 61.265-61.263C122.526 27.481 95.04 0 61.262 0zm0 119.715c-32.23 0-58.453-26.223-58.453-58.455 0-32.23 26.222-58.451 58.453-58.451 32.229 0 58.45 26.221 58.45 58.451 0 32.232-26.221 58.455-58.45 58.455z"/></g></g></svg>

<?xml version="1.0" encoding="UTF-8" standalone="no"?>
<svg width="540px" height="123px" viewBox="0 0 540 123" version="1.1" xmlns="http://www.w3.org/2000/svg" xmlns:xlink="http://www.w3.org/1999/xlink">
    <!-- Generator: Sketch 39.1 (31720) - http://www.bohemiancoding.com/sketch -->
    <title>Layer_2</title>
    <desc>Created with Sketch.</desc>
    <defs></defs>
    <g id="Page-1" stroke="none" stroke-width="1" fill="none" fill-rule="evenodd">
        <g id="Layer_2" fill="#FFFFFF">
            <g id="Group">
                <path d="M313.19,48.227 L291.933,48.227 L291.933,50.482 C298.582,50.482 299.651,51.907 299.651,60.339 L299.651,75.54 C299.651,83.971 298.583,85.515 291.933,85.515 C286.828,84.803 283.383,82.071 278.633,76.846 L273.171,70.909 C280.533,69.601 284.451,64.971 284.451,59.745 C284.451,53.215 278.871,48.227 268.42,48.227 L247.52,48.227 L247.52,50.482 C254.169,50.482 255.238,51.907 255.238,60.339 L255.238,75.54 C255.238,83.971 254.169,85.515 247.52,85.515 L247.52,87.771 L271.151,87.771 L271.151,85.515 C264.502,85.515 263.433,83.971 263.433,75.54 L263.433,71.266 L265.451,71.266 L278.633,87.771 L313.19,87.771 C330.171,87.771 337.534,78.747 337.534,67.939 C337.534,57.133 330.172,48.227 313.19,48.227 L313.19,48.227 Z M263.434,67.582 L263.434,51.79 L268.302,51.79 C273.645,51.79 276.021,55.471 276.021,59.746 C276.021,63.903 273.645,67.583 268.302,67.583 L263.434,67.583 L263.434,67.582 Z M313.547,84.09 L312.715,84.09 C308.441,84.09 307.847,83.022 307.847,77.559 L307.847,51.79 L313.547,51.79 C325.897,51.79 328.152,60.814 328.152,67.821 C328.152,75.064 325.896,84.09 313.547,84.09 L313.547,84.09 Z" id="Shape" opacity="0.85"></path>
                <path d="M181.378,71.978 L189.572,47.751 C191.948,40.745 190.879,38.727 183.279,38.727 L183.279,36.351 L205.604,36.351 L205.604,38.727 C198.123,38.727 196.342,40.508 193.373,49.177 L179.834,89.79 L178.291,89.79 L166.177,52.62 L153.828,89.79 L152.284,89.79 L139.103,49.177 C136.253,40.508 134.353,38.727 127.465,38.727 L127.465,36.351 L153.828,36.351 L153.828,38.727 C146.821,38.727 144.92,40.389 147.415,47.751 L155.371,71.978 L167.365,36.351 L169.622,36.351 L181.378,71.978 L181.378,71.978 Z" id="Shape" opacity="0.85"></path>
                <path d="M221.752,89.314 C208.69,89.314 198.002,79.696 198.002,67.938 C198.002,56.301 208.691,46.681 221.752,46.681 C234.815,46.681 245.502,56.301 245.502,67.938 C245.502,79.696 234.815,89.314 221.752,89.314 L221.752,89.314 Z M221.752,50.365 C210.828,50.365 207.027,60.22 207.027,67.939 C207.027,75.778 210.828,85.515 221.752,85.515 C232.797,85.515 236.597,75.778 236.597,67.939 C236.597,60.22 232.797,50.365 221.752,50.365 L221.752,50.365 Z" id="Shape" opacity="0.85"></path>
                <path d="M366.864,85.396 L366.864,87.771 L339.67,87.771 L339.67,85.396 C347.627,85.396 349.052,83.378 349.052,71.501 L349.052,52.502 C349.052,40.625 347.627,38.726 339.67,38.726 L339.67,36.35 L364.251,36.35 C376.482,36.35 383.253,42.644 383.253,51.077 C383.253,59.271 376.482,65.683 364.251,65.683 L357.482,65.683 L357.482,71.5 C357.482,83.378 358.907,85.396 366.864,85.396 L366.864,85.396 Z M364.251,40.625 L357.482,40.625 L357.482,61.289 L364.251,61.289 C370.902,61.289 373.989,56.658 373.989,51.077 C373.989,45.377 370.902,40.625 364.251,40.625 L364.251,40.625 Z" id="Shape" opacity="0.85"></path>
                <path d="M464.833,76.609 L464.239,78.746 C463.171,82.665 461.863,84.09 453.432,84.09 L451.769,84.09 C445.595,84.09 444.526,82.665 444.526,74.234 L444.526,68.772 C453.789,68.772 454.502,69.602 454.502,75.778 L456.758,75.778 L456.758,58.083 L454.502,58.083 C454.502,64.258 453.789,65.089 444.526,65.089 L444.526,51.79 L451.056,51.79 C459.489,51.79 460.794,53.215 461.863,57.134 L462.458,59.389 L464.357,59.389 L463.527,48.227 L428.613,48.227 L428.613,50.482 C435.262,50.482 436.332,51.907 436.332,60.339 L436.332,75.54 C436.332,83.253 435.424,85.196 430.181,85.473 C425.198,84.712 421.777,81.994 417.096,76.846 L411.633,70.909 C418.996,69.601 422.915,64.971 422.915,59.745 C422.915,53.215 417.334,48.227 406.884,48.227 L385.984,48.227 L385.984,50.482 C392.633,50.482 393.702,51.907 393.702,60.339 L393.702,75.54 C393.702,83.971 392.634,85.515 385.984,85.515 L385.984,87.771 L409.616,87.771 L409.616,85.515 C402.967,85.515 401.897,83.971 401.897,75.54 L401.897,71.266 L403.916,71.266 L417.097,87.771 L465.903,87.771 L466.616,76.61 L464.833,76.61 L464.833,76.609 Z M401.896,67.582 L401.896,51.79 L406.764,51.79 C412.108,51.79 414.484,55.471 414.484,59.746 C414.484,63.903 412.108,67.583 406.764,67.583 L401.896,67.583 L401.896,67.582 Z" id="Shape" opacity="0.85"></path>
                <path d="M488.939,89.314 C484.189,89.314 480.032,86.821 478.251,85.276 C477.657,85.871 476.589,87.652 476.352,89.314 L474.095,89.314 L474.095,72.928 L476.47,72.928 C477.421,80.765 482.882,85.396 489.889,85.396 C493.689,85.396 496.777,83.259 496.777,79.697 C496.777,76.61 494.046,74.234 489.177,71.978 L482.408,68.772 C477.657,66.514 474.095,62.595 474.095,57.371 C474.095,51.671 479.439,46.803 486.802,46.803 C490.721,46.803 494.045,48.228 496.065,49.89 C496.658,49.415 497.252,48.108 497.609,46.682 L499.865,46.682 L499.865,60.696 L497.371,60.696 C496.539,55.114 493.452,50.483 487.159,50.483 C483.834,50.483 480.745,52.383 480.745,55.353 C480.745,58.44 483.239,60.102 488.94,62.715 L495.47,65.921 C501.171,68.652 503.426,73.048 503.426,76.61 C503.426,84.09 496.895,89.314 488.939,89.314 L488.939,89.314 Z" id="Shape" opacity="0.85"></path>
                <path d="M525.514,89.314 C520.763,89.314 516.606,86.821 514.826,85.276 C514.232,85.871 513.164,87.652 512.927,89.314 L510.67,89.314 L510.67,72.928 L513.045,72.928 C513.995,80.765 519.457,85.396 526.464,85.396 C530.264,85.396 533.352,83.259 533.352,79.697 C533.352,76.61 530.621,74.234 525.751,71.978 L518.982,68.772 C514.232,66.514 510.669,62.595 510.669,57.371 C510.669,51.671 516.013,46.803 523.376,46.803 C527.295,46.803 530.619,48.228 532.639,49.89 C533.232,49.415 533.826,48.108 534.181,46.682 L536.438,46.682 L536.438,60.696 L533.945,60.696 C533.113,55.114 530.026,50.483 523.733,50.483 C520.408,50.483 517.319,52.383 517.319,55.353 C517.319,58.44 519.813,60.102 525.514,62.715 L532.044,65.921 C537.745,68.652 540,73.048 540,76.61 C540,84.09 533.469,89.314 525.514,89.314 L525.514,89.314 Z" id="Shape" opacity="0.85"></path>
                <g id="Shape" opacity="0.5">
                    <path d="M8.708,61.26 C8.708,82.062 20.797,100.039 38.327,108.558 L13.258,39.872 C10.342,46.408 8.708,53.641 8.708,61.26 L8.708,61.26 Z"></path>
                    <path d="M96.74,58.608 C96.74,52.113 94.407,47.615 92.406,44.114 C89.742,39.785 87.245,36.119 87.245,31.79 C87.245,26.959 90.909,22.462 96.07,22.462 C96.303,22.462 96.524,22.491 96.751,22.504 C87.401,13.938 74.944,8.708 61.262,8.708 C42.902,8.708 26.749,18.128 17.352,32.396 C18.585,32.433 19.747,32.459 20.734,32.459 C26.231,32.459 34.74,31.792 34.74,31.792 C37.573,31.625 37.907,35.786 35.077,36.121 C35.077,36.121 32.23,36.456 29.062,36.622 L48.2,93.547 L59.701,59.054 L51.513,36.62 C48.683,36.454 46.002,36.119 46.002,36.119 C43.17,35.953 43.502,31.623 46.334,31.79 C46.334,31.79 55.013,32.457 60.177,32.457 C65.673,32.457 74.183,31.79 74.183,31.79 C77.018,31.623 77.351,35.784 74.52,36.119 C74.52,36.119 71.667,36.454 68.505,36.62 L87.497,93.114 L92.739,75.597 C95.011,68.328 96.74,63.107 96.74,58.608 L96.74,58.608 Z"></path>
                    <path d="M62.184,65.857 L46.416,111.676 C51.124,113.06 56.103,113.817 61.262,113.817 C67.382,113.817 73.251,112.759 78.714,110.838 C78.573,110.613 78.445,110.374 78.34,110.114 L62.184,65.857 L62.184,65.857 Z"></path>
                    <path d="M107.376,36.046 C107.602,37.72 107.73,39.517 107.73,41.45 C107.73,46.783 106.734,52.778 103.734,60.274 L87.681,106.687 C103.305,97.576 113.814,80.649 113.814,61.261 C113.815,52.124 111.481,43.532 107.376,36.046 L107.376,36.046 Z"></path>
                    <path d="M61.262,0 C27.483,0 0,27.481 0,61.26 C0,95.043 27.483,122.523 61.262,122.523 C95.04,122.523 122.527,95.043 122.527,61.26 C122.526,27.481 95.04,0 61.262,0 L61.262,0 Z M61.262,119.715 C29.032,119.715 2.809,93.492 2.809,61.26 C2.809,29.03 29.031,2.809 61.262,2.809 C93.491,2.809 119.712,29.03 119.712,61.26 C119.712,93.492 93.491,119.715 61.262,119.715 L61.262,119.715 Z"></path>
                </g>
            </g>
        </g>
    </g>
</svg>
